packages/foundations/assets/icons/functional/images/audio & video/play_48.svg

<svg width="48" height="48" viewBox="0 0 48 48" fill="none" xmlns="http://www.w3.org/2000/svg">
<g clip-path="url(#clip0_2202_447)">
<path fill-rule="evenodd" clip-rule="evenodd" d="M14.531 9C15.208 9 15.885 9.208 16.458 9.573L35.344 21.292C35.7799 21.596 36.1355 22.0013 36.3804 22.4729C36.6253 22.9446 36.7521 23.4686 36.75 24C36.75 25.094 36.23 26.083 35.344 26.708L16.458 38.427C15.8826 38.7959 15.2145 38.9946 14.531 39C12.708 39 11.25 37.49 11.25 35.667V12.333C11.25 10.51 12.708 9 14.531 9ZM14.531 11C13.876 11 13.25 11.52 13.25 12.333C13.248 20.111 13.248 27.889 13.25 35.667C13.25 36.405 13.833 37 14.531 37C14.766 37 15.02 36.94 15.383 36.74C21.6067 32.7788 27.8762 28.8899 34.19 25.074C34.55 24.82 34.75 24.437 34.75 24C34.75 23.611 34.55 23.15 34.204 22.937C31.486 21.202 25.213 17.31 15.384 11.26C15.1295 11.0955 14.834 11.0055 14.531 11Z" fill="#1A1C1F"/>
</g>
<defs>
<clipPath id="clip0_2202_447">
<rect width="48" height="48" fill="white"/>
</clipPath>
</defs>
</svg>

<svg xmlns="http://www.w3.org/2000/svg" width="48" height="48" fill="none"><g clip-path="url(#a)"><path fill="#1A1C1F" fill-rule="evenodd" d="M14.531 9c.677 0 1.354.208 1.927.573l18.886 11.719A3.29 3.29 0 0 1 36.75 24c0 1.094-.52 2.083-1.406 2.708L16.458 38.427a3.6 3.6 0 0 1-1.927.573c-1.823 0-3.281-1.51-3.281-3.333V12.333C11.25 10.51 12.708 9 14.531 9m0 2c-.655 0-1.281.52-1.281 1.333q-.003 11.667 0 23.334c0 .738.583 1.333 1.281 1.333.235 0 .489-.06.852-.26A955 955 0 0 1 34.19 25.074c.36-.254.56-.637.56-1.074 0-.389-.2-.85-.546-1.063q-4.077-2.602-18.82-11.677a1.63 1.63 0 0 0-.853-.26" clip-rule="evenodd"/></g><defs><clipPath id="a"><path fill="#fff" d="M0 0h48v48H0z"/></clipPath></defs></svg>
